src/img/insta.svg

<svg width="40" height="40" viewBox="0 0 40 40" fill="none" xmlns="http://www.w3.org/2000/svg">
<g id="Instagram_logo_2016 1">
<path id="Vector" d="M20.0112 0.302734C11.7858 0.302734 9.38017 0.31122 8.91256 0.35001C7.22456 0.490323 6.17419 0.756099 5.02987 1.32584C4.14799 1.76375 3.45248 2.27136 2.76607 2.98292C1.51598 4.28059 0.758355 5.87706 0.484094 7.77477C0.350751 8.69605 0.311961 8.88394 0.304081 13.5897C0.301051 15.1583 0.304081 17.2227 0.304081 19.9917C0.304081 28.2104 0.313173 30.6136 0.352569 31.0803C0.488943 32.7229 0.746536 33.7563 1.29203 34.8867C2.33453 37.0504 4.32557 38.6748 6.67119 39.2809C7.48337 39.49 8.3804 39.6052 9.532 39.6597C10.0199 39.6809 14.993 39.6961 19.9691 39.6961C24.9452 39.6961 29.9213 39.69 30.3971 39.6658C31.7305 39.6031 32.5048 39.4991 33.3609 39.2779C35.7217 38.6687 37.6764 37.0686 38.7401 34.8745C39.275 33.7714 39.5462 32.6986 39.6689 31.1419C39.6956 30.8024 39.7068 25.3908 39.7068 19.9865C39.7068 14.5813 39.6947 9.17972 39.668 8.8403C39.5438 7.25837 39.2726 6.19466 38.7204 5.07034C38.2673 4.14997 37.7643 3.46265 37.0339 2.75988C35.7305 1.51494 34.1364 0.757311 32.2369 0.483353C31.3165 0.350313 31.1332 0.310917 26.4238 0.302734H20.0112Z" fill="url(#paint0_radial_217_175)"/>
<path id="Vector_2" d="M20.0112 0.302734C11.7858 0.302734 9.38017 0.31122 8.91256 0.35001C7.22456 0.490323 6.17419 0.756099 5.02987 1.32584C4.14799 1.76375 3.45248 2.27136 2.76607 2.98292C1.51598 4.28059 0.758355 5.87706 0.484094 7.77477C0.350751 8.69605 0.311961 8.88394 0.304081 13.5897C0.301051 15.1583 0.304081 17.2227 0.304081 19.9917C0.304081 28.2104 0.313173 30.6136 0.352569 31.0803C0.488943 32.7229 0.746536 33.7563 1.29203 34.8867C2.33453 37.0504 4.32557 38.6748 6.67119 39.2809C7.48337 39.49 8.3804 39.6052 9.532 39.6597C10.0199 39.6809 14.993 39.6961 19.9691 39.6961C24.9452 39.6961 29.9213 39.69 30.3971 39.6658C31.7305 39.6031 32.5048 39.4991 33.3609 39.2779C35.7217 38.6687 37.6764 37.0686 38.7401 34.8745C39.275 33.7714 39.5462 32.6986 39.6689 31.1419C39.6956 30.8024 39.7068 25.3908 39.7068 19.9865C39.7068 14.5813 39.6947 9.17972 39.668 8.8403C39.5438 7.25837 39.2726 6.19466 38.7204 5.07034C38.2673 4.14997 37.7643 3.46265 37.0339 2.75988C35.7305 1.51494 34.1364 0.757311 32.2369 0.483353C31.3165 0.350313 31.1332 0.310917 26.4238 0.302734H20.0112Z" fill="url(#paint1_radial_217_175)"/>
<path id="Vector_3" d="M20.0028 5.45459C16.0522 5.45459 15.5564 5.47186 14.0048 5.54248C12.4562 5.61339 11.3991 5.85856 10.4742 6.21828C9.51748 6.58982 8.70591 7.08682 7.89737 7.89567C7.08822 8.70421 6.59122 9.51578 6.21846 10.4722C5.85783 11.3974 5.61236 12.4548 5.54266 14.0028C5.47326 15.5544 5.45508 16.0505 5.45508 20.0011C5.45508 23.9516 5.47266 24.4459 5.54296 25.9975C5.61418 27.5461 5.85935 28.6032 6.21877 29.5281C6.59061 30.4848 7.08762 31.2964 7.89646 32.1049C8.7047 32.9141 9.51627 33.4123 10.4724 33.7838C11.3979 34.1436 12.4553 34.3887 14.0036 34.4596C15.5552 34.5303 16.0507 34.5475 20.0009 34.5475C23.9518 34.5475 24.4461 34.5303 25.9977 34.4596C27.5463 34.3887 28.6046 34.1436 29.5301 33.7838C30.4865 33.4123 31.2969 32.9141 32.1051 32.1049C32.9143 31.2964 33.4113 30.4848 33.784 29.5284C34.1416 28.6032 34.3871 27.5458 34.4598 25.9978C34.5295 24.4462 34.5477 23.9516 34.5477 20.0011C34.5477 16.0505 34.5295 15.5547 34.4598 14.0031C34.3871 12.4545 34.1416 11.3974 33.784 10.4725C33.4113 9.51578 32.9143 8.70421 32.1051 7.89567C31.296 7.08652 30.4868 6.58952 29.5292 6.21828C28.6018 5.85856 27.5442 5.61339 25.9956 5.54248C24.444 5.47186 23.95 5.45459 19.9982 5.45459H20.0028ZM18.6978 8.07598C19.0851 8.07538 19.5173 8.07598 20.0028 8.07598C23.8867 8.07598 24.347 8.08993 25.8807 8.15963C27.299 8.22448 28.0688 8.46147 28.5815 8.66057C29.2604 8.92423 29.7443 9.2394 30.2532 9.74853C30.7623 10.2577 31.0775 10.7425 31.3417 11.4214C31.5408 11.9335 31.7781 12.7033 31.8427 14.1216C31.9124 15.655 31.9275 16.1156 31.9275 19.9977C31.9275 23.8798 31.9124 24.3405 31.8427 25.8739C31.7778 27.2922 31.5408 28.0619 31.3417 28.5741C31.0781 29.2529 30.7623 29.7363 30.2532 30.2451C29.744 30.7542 29.2607 31.0694 28.5815 31.3331C28.0694 31.5331 27.299 31.7695 25.8807 31.8343C24.3473 31.904 23.8867 31.9192 20.0028 31.9192C16.1185 31.9192 15.6582 31.904 14.1248 31.8343C12.7065 31.7688 11.9367 31.5319 11.4237 31.3328C10.7448 31.0691 10.26 30.7539 9.75083 30.2448C9.24171 29.7357 8.92653 29.252 8.66227 28.5729C8.46317 28.0607 8.22588 27.291 8.16133 25.8727C8.09163 24.3392 8.07768 23.8786 8.07768 19.9941C8.07768 16.1096 8.09163 15.6514 8.16133 14.1179C8.22618 12.6996 8.46317 11.9299 8.66227 11.4171C8.92593 10.7383 9.24171 10.2534 9.75083 9.74428C10.26 9.23516 10.7448 8.91998 11.4237 8.65572C11.9364 8.45571 12.7065 8.21933 14.1248 8.15417C15.4667 8.09356 15.9867 8.07538 18.6978 8.07235V8.07598ZM27.7675 10.4913C26.8038 10.4913 26.022 11.2723 26.022 12.2363C26.022 13.2 26.8038 13.9819 27.7675 13.9819C28.7312 13.9819 29.5131 13.2 29.5131 12.2363C29.5131 11.2726 28.7312 10.4907 27.7675 10.4907V10.4913ZM20.0028 12.5308C15.8773 12.5308 12.5325 15.8756 12.5325 20.0011C12.5325 24.1265 15.8773 27.4698 20.0028 27.4698C24.1282 27.4698 27.4718 24.1265 27.4718 20.0011C27.4718 15.8756 24.1282 12.5308 20.0028 12.5308ZM20.0028 15.1522C22.6805 15.1522 24.8516 17.323 24.8516 20.0011C24.8516 22.6788 22.6805 24.8499 20.0028 24.8499C17.3247 24.8499 15.1539 22.6788 15.1539 20.0011C15.1539 17.323 17.3247 15.1522 20.0028 15.1522Z" fill="white"/>
</g>
<defs>
<radialGradient id="paint0_radial_217_175" cx="0" cy="0" r="1" gradientUnits="userSpaceOnUse" gradientTransform="translate(10.7695 42.7302) rotate(-90) scale(39.0417 36.3218)">
<stop stop-color="#FFDD55"/>
<stop offset="0.1" stop-color="#FFDD55"/>
<stop offset="0.5" stop-color="#FF543E"/>
<stop offset="1" stop-color="#C837AB"/>
</radialGradient>
<radialGradient id="paint1_radial_217_175" cx="0" cy="0" r="1" gradientUnits="userSpaceOnUse" gradientTransform="translate(-6.29766 3.14056) rotate(78.6776) scale(17.452 71.956)">
<stop stop-color="#3771C8"/>
<stop offset="0.128" stop-color="#3771C8"/>
<stop offset="1" stop-color="#6600FF" stop-opacity="0"/>
</radialGradient>
</defs>
</svg>

<svg width="40" height="40" fill="none" xmlns="http://www.w3.org/2000/svg"><path d="M20.011.303C11.786.303 9.381.31 8.913.35c-1.688.14-2.739.406-3.883.976a7.865 7.865 0 00-2.264 1.657C1.516 4.28.758 5.877.484 7.775c-.133.921-.172 1.109-.18 5.815-.003 1.568 0 3.633 0 6.402 0 8.218.01 10.622.049 11.088.136 1.643.394 2.676.939 3.807 1.043 2.163 3.034 3.788 5.38 4.394.811.209 1.708.324 2.86.379.488.02 5.461.036 10.437.036 4.976 0 9.952-.006 10.428-.03 1.334-.063 2.108-.167 2.964-.388a8.25 8.25 0 005.38-4.404c.534-1.103.805-2.175.928-3.732.027-.34.038-5.751.038-11.155 0-5.406-.012-10.807-.039-11.147-.124-1.582-.395-2.645-.948-3.77a7.809 7.809 0 00-1.686-2.31C35.73 1.515 34.136.757 32.237.483c-.92-.133-1.104-.172-5.813-.18H20.01z" fill="url(#paint0_radial_217_175)"/><path d="M20.011.303C11.786.303 9.381.31 8.913.35c-1.688.14-2.739.406-3.883.976a7.865 7.865 0 00-2.264 1.657C1.516 4.28.758 5.877.484 7.775c-.133.921-.172 1.109-.18 5.815-.003 1.568 0 3.633 0 6.402 0 8.218.01 10.622.049 11.088.136 1.643.394 2.676.939 3.807 1.043 2.163 3.034 3.788 5.38 4.394.811.209 1.708.324 2.86.379.488.02 5.461.036 10.437.036 4.976 0 9.952-.006 10.428-.03 1.334-.063 2.108-.167 2.964-.388a8.25 8.25 0 005.38-4.404c.534-1.103.805-2.175.928-3.732.027-.34.038-5.751.038-11.155 0-5.406-.012-10.807-.039-11.147-.124-1.582-.395-2.645-.948-3.77a7.809 7.809 0 00-1.686-2.31C35.73 1.515 34.136.757 32.237.483c-.92-.133-1.104-.172-5.813-.18H20.01z" fill="url(#paint1_radial_217_175)"/><path d="M20.003 5.455c-3.95 0-4.447.017-5.998.087-1.549.071-2.606.317-3.53.676a7.123 7.123 0 00-2.578 1.678 7.141 7.141 0 00-1.679 2.576c-.36.925-.606 1.983-.675 3.53-.07 1.552-.088 2.048-.088 6 0 3.95.018 4.444.088 5.995.071 1.55.316 2.606.676 3.531a7.128 7.128 0 001.677 2.577 7.122 7.122 0 002.576 1.679c.926.36 1.983.605 3.532.676 1.551.07 2.047.087 5.997.087 3.95 0 4.445-.017 5.997-.087 1.548-.071 2.607-.316 3.532-.676a7.116 7.116 0 002.575-1.68 7.14 7.14 0 001.679-2.576c.358-.925.603-1.982.676-3.53.07-1.552.088-2.046.088-5.997 0-3.95-.019-4.446-.088-5.998-.073-1.549-.318-2.606-.676-3.53a7.138 7.138 0 00-1.679-2.577 7.11 7.11 0 00-2.576-1.678c-.927-.36-1.985-.605-3.533-.676-1.552-.07-2.046-.087-5.998-.087h.005zm-1.305 2.621h1.305c3.884 0 4.344.014 5.878.084 1.418.064 2.188.301 2.7.5a4.499 4.499 0 011.672 1.089c.51.509.825.993 1.089 1.672.199.513.436 1.282.5 2.7.07 1.534.085 1.995.085 5.877 0 3.882-.015 4.342-.084 5.876-.065 1.418-.302 2.188-.501 2.7a4.497 4.497 0 01-1.089 1.671 4.5 4.5 0 01-1.672 1.088c-.512.2-1.282.437-2.7.501-1.534.07-1.994.085-5.878.085-3.884 0-4.345-.015-5.878-.085-1.418-.065-2.188-.302-2.701-.501a4.506 4.506 0 01-1.673-1.088 4.509 4.509 0 01-1.089-1.672c-.199-.512-.436-1.282-.5-2.7-.07-1.534-.084-1.994-.084-5.879 0-3.884.014-4.343.083-5.876.065-1.418.302-2.188.501-2.7a4.507 4.507 0 011.089-1.674 4.51 4.51 0 011.673-1.088c.512-.2 1.283-.437 2.7-.502 1.343-.06 1.863-.079 4.574-.082v.004zm9.07 2.415a1.745 1.745 0 100 3.492 1.745 1.745 0 000-3.492zm-7.765 2.04a7.47 7.47 0 100 14.941 7.47 7.47 0 000-14.941zm0 2.621a4.849 4.849 0 110 9.698 4.849 4.849 0 010-9.698z" fill="#fff"/><defs><radialGradient id="paint0_radial_217_175" cx="0" cy="0" r="1" gradientUnits="userSpaceOnUse" gradientTransform="matrix(0 -39.0417 36.3218 0 10.77 42.73)"><stop stop-color="#FD5"/><stop offset=".1" stop-color="#FD5"/><stop offset=".5" stop-color="#FF543E"/><stop offset="1" stop-color="#C837AB"/></radialGradient><radialGradient id="paint1_radial_217_175" cx="0" cy="0" r="1" gradientUnits="userSpaceOnUse" gradientTransform="matrix(3.42634 17.11235 -70.5556 14.12709 -6.298 3.14)"><stop stop-color="#3771C8"/><stop offset=".128" stop-color="#3771C8"/><stop offset="1" stop-color="#60F" stop-opacity="0"/></radialGradient></defs></svg>
